X:144
T:The Hessian - Camp Duties #5 * 
B:American Veteran Fifer - Camp Duties #5
M:C
L:1/8
Q:1/4=90
K:G
%%MIDI channel 1
%%MIDI program 72
%%MIDI transpose 20
%%MIDI grace 1/8
%%MIDI ratio 2 1
c|B2 e2 dedc|B2 e2 d3 c|B2 E2 dedc|B2E2 D3:||:e|dcBA GFGA|B2 e2 d3 e|dcBA GFGA|B2 A2 G2:||:D|GBAG FEFD|
G2 A2 B2 G2|cc ((3cBA) BB ((3BAG)|d2 D2 G3||B|cc ((3cdc) c3 B|dd ((3dcB) A3 B|cc ((3cBA) BB ((3BAG)|d2D2G3||"^Drum Roll."c4|c4|c2z2||
% Original had few notes in first complete bar of last measure in second line. "|cc ((3cdc) c>B|" was
% changed to "|cc ((3cdc) c3 B|" to match the rhythm of the next bar.  
% Original second line was as follows:
% G2 A2 B2 G2|cc ((3cBA) BB ((3BAG)|d2 D2 G3||B|cc ((3cdc) c>B|dd ((3dcB) A3 B|cc ((3cBA) BB ((3BAG)|d2D2G3||"^Drum Roll."c4|c4|c2z2||
